icons/booklet-fill.svg

<svg viewBox="0 0 24 24" fill="currentColor" xmlns="http://www.w3.org/2000/svg"><path d="M8 2V22H4V18H2V16H4V13H2V11H4V8H2V6H4V2H8ZM20.0049 2C21.1068 2 22 2.89821 22 3.9908V20.0092C22 21.1087 21.1074 22 20.0049 22H10V2H20.0049Z"/></svg>

<svg xmlns="http://www.w3.org/2000/svg" viewBox="0 0 24 24">
    <g>
        <path fill="none" d="M0 0h24v24H0z"/>
        <path d="M8 2v20H4v-4H2v-2h2v-3H2v-2h2V8H2V6h2V2h4zm12.005 0C21.107 2 22 2.898 22 3.99v16.02c0 1.099-.893 1.99-1.995 1.99H10V2h10.005z"/>
    </g>
</svg>
